packages/foundations/assets/icons/functional/images/business & payment/generic_card_24_filled.svg

<svg xmlns="http://www.w3.org/2000/svg" width="20" height="20" fill="none"><path fill="#1A1C1F" fill-rule="evenodd" d="M3.572 4.051c-.358.078-.69.265-.972.548a1.84 1.84 0 0 0-.534.921C2.002 5.77 2 5.904 2 10c0 4.112.002 4.23.067 4.483q.133.522.53.92.398.397.92.53c.256.066.372.067 6.483.067s6.227-.001 6.483-.067q.522-.133.92-.53.397-.398.53-.92c.065-.253.067-.371.067-4.483s-.002-4.23-.067-4.483a2.04 2.04 0 0 0-1.521-1.467c-.332-.071-12.515-.069-12.84.001M16 7v1H4V6h12z"/></svg>

<svg width="20" height="20" viewBox="0 0 20 20" fill="none" xmlns="http://www.w3.org/2000/svg"><path d="M3.572 4.051 C 3.214 4.129,2.882 4.316,2.600 4.599 C 2.311 4.888,2.161 5.147,2.066 5.520 C 2.002 5.770,2.000 5.904,2.000 10.000 C 2.000 14.112,2.002 14.230,2.067 14.483 C 2.156 14.832,2.332 15.137,2.597 15.403 C 2.863 15.668,3.168 15.844,3.517 15.933 C 3.773 15.999,3.889 16.000,10.000 16.000 C 16.111 16.000,16.227 15.999,16.483 15.933 C 16.832 15.844,17.137 15.668,17.403 15.403 C 17.668 15.137,17.844 14.832,17.933 14.483 C 17.998 14.230,18.000 14.112,18.000 10.000 C 18.000 5.888,17.998 5.770,17.933 5.517 C 17.748 4.793,17.137 4.203,16.412 4.050 C 16.080 3.979,3.897 3.981,3.572 4.051 M16.000 7.000 L 16.000 8.000 10.000 8.000 L 4.000 8.000 4.000 7.000 L 4.000 6.000 10.000 6.000 L 16.000 6.000 16.000 7.000 " fill="#1A1C1F" stroke="none" fill-rule="evenodd"></path></svg>
